img/svgicons/arrow-white.svg

<svg width="35" height="35" viewBox="0 0 35 35" fill="none" xmlns="http://www.w3.org/2000/svg">
<circle cx="17.5" cy="17.5" r="17" stroke="white"/>
<path d="M26 18C26 17.4477 25.5523 17 25 17H14.0314C13.9571 17 13.9199 16.9101 13.9724 16.8576L18.71 12.12C19.1017 11.7283 19.1006 11.0928 18.7075 10.7025C18.3163 10.3141 17.6848 10.3152 17.295 10.705L10.4934 17.5066C10.2209 17.7791 10.2209 18.2209 10.4934 18.4934L17.26 25.26C17.6687 25.6687 18.3313 25.6687 18.74 25.26C19.1101 24.8898 19.1104 24.2899 18.7406 23.9194L13.9661 19.1364C13.9159 19.086 13.9515 19 14.0227 19H25C25.5523 19 26 18.5523 26 18Z" fill="white"/>
</svg>

<svg width="35" height="35" fill="none" xmlns="http://www.w3.org/2000/svg"><circle cx="17.5" cy="17.5" r="17" stroke="#fff"/><path d="M26 18a1 1 0 00-1-1H14.031a.083.083 0 01-.059-.142l4.738-4.738a1 1 0 00-1.415-1.415l-6.802 6.802a.698.698 0 000 .986l6.767 6.767a1.047 1.047 0 001.48 0c.37-.37.37-.97 0-1.34l-4.774-4.784a.08.08 0 01.057-.136H25a1 1 0 001-1z" fill="#fff"/></svg>
